public/assests/icons/cake.svg

<svg width="20" height="25" viewBox="0 0 20 25" fill="none" xmlns="http://www.w3.org/2000/svg">
<path fill-rule="evenodd" clip-rule="evenodd" d="M19.2 11.6667H16.8V4.86667C16.8004 4.75712 16.7799 4.64859 16.7399 4.54731C16.6998 4.44603 16.6409 4.35401 16.5665 4.27655C16.4921 4.19909 16.4038 4.13772 16.3066 4.09598C16.2094 4.05424 16.1052 4.03295 16 4.03333H15.6V0.833333C15.6 0.612319 15.5157 0.400358 15.3657 0.244078C15.2157 0.0877974 15.0122 0 14.8 0C14.5878 0 14.3843 0.0877974 14.2343 0.244078C14.0843 0.400358 14 0.612319 14 0.833333V4.03333H12.4V0.833333C12.4 0.612319 12.3157 0.400358 12.1657 0.244078C12.0157 0.0877974 11.8122 0 11.6 0C11.3878 0 11.1843 0.0877974 11.0343 0.244078C10.8843 0.400358 10.8 0.612319 10.8 0.833333V4.03333H9.2V0.833333C9.2 0.612319 9.11572 0.400358 8.96569 0.244078C8.81566 0.0877974 8.61217 0 8.4 0C8.18783 0 7.98434 0.0877974 7.83432 0.244078C7.68429 0.400358 7.6 0.612319 7.6 0.833333V4.03333H6V0.833333C6 0.612319 5.91572 0.400358 5.76569 0.244078C5.61566 0.0877974 5.41218 0 5.2 0C4.98783 0 4.78435 0.0877974 4.63432 0.244078C4.48429 0.400358 4.4 0.612319 4.4 0.833333V4.03333H4C3.89484 4.03295 3.79065 4.05424 3.69342 4.09598C3.59619 4.13772 3.50785 4.19909 3.43349 4.27655C3.35913 4.35401 3.30022 4.44603 3.26015 4.54731C3.22007 4.64859 3.19963 4.75712 3.2 4.86667V11.6667H0.800005C0.588026 11.6673 0.384911 11.7553 0.235019 11.9115C0.0851268 12.0676 0.000638026 12.2792 4.93501e-06 12.5V24.1667C-0.000365075 24.2762 0.020075 24.3847 0.0601476 24.486C0.10022 24.5873 0.159134 24.6793 0.233494 24.7568C0.307855 24.8342 0.396193 24.8956 0.493421 24.9373C0.590648 24.9791 0.694843 25.0004 0.800005 25H19.2C19.3052 25.0004 19.4094 24.9791 19.5066 24.9373C19.6038 24.8956 19.6921 24.8342 19.7665 24.7568C19.8409 24.6793 19.8998 24.5873 19.9399 24.486C19.9799 24.3847 20.0004 24.2762 20 24.1667V12.5C19.9994 12.2792 19.9149 12.0676 19.765 11.9115C19.6151 11.7553 19.412 11.6673 19.2 11.6667ZM4.8 5.7H15.2V11.6667H4.8V5.7ZM1.6 13.3333H18.4V15.1333C17.8895 15.3273 17.437 15.6578 17.088 16.0917C16.72 16.4917 16.536 16.6667 16.128 16.6667C15.72 16.6667 15.544 16.4917 15.168 16.0917C14.9215 15.7524 14.6028 15.4773 14.2371 15.2879C13.8713 15.0985 13.4684 14.9999 13.06 14.9999C12.6516 14.9999 12.2487 15.0985 11.8829 15.2879C11.5172 15.4773 11.1985 15.7524 10.952 16.0917C10.584 16.4917 10.4 16.6667 9.992 16.6667C9.584 16.6667 9.408 16.4917 9.04 16.0917C8.79263 15.7524 8.47326 15.4773 8.10688 15.2879C7.74049 15.0985 7.33702 14.9999 6.928 14.9999C6.51898 14.9999 6.11551 15.0985 5.74912 15.2879C5.38274 15.4773 5.06338 15.7524 4.816 16.0917C4.448 16.4917 4.272 16.6667 3.864 16.6667C3.456 16.6667 3.28 16.4917 2.912 16.0917C2.56459 15.656 2.11159 15.3251 1.6 15.1333V13.3333ZM18.4 23.3333H1.6V17.0833C1.648 17.125 1.696 17.1833 1.752 17.2417C1.99938 17.581 2.31874 17.8561 2.68513 18.0455C3.05151 18.2349 3.45499 18.3334 3.864 18.3334C4.27302 18.3334 4.6765 18.2349 5.04288 18.0455C5.40927 17.8561 5.72863 17.581 5.976 17.2417C6.344 16.85 6.52 16.6667 6.928 16.6667C7.336 16.6667 7.52 16.85 7.88 17.25C8.12885 17.587 8.44871 17.86 8.8149 18.0479C9.18109 18.2357 9.58382 18.3334 9.992 18.3334C10.4002 18.3334 10.8029 18.2357 11.1691 18.0479C11.5353 17.86 11.8552 17.587 12.104 17.25C12.472 16.85 12.648 16.6667 13.056 16.6667C13.472 16.6667 13.648 16.85 14.016 17.25C14.2648 17.587 14.5847 17.86 14.9509 18.0479C15.3171 18.2357 15.7198 18.3334 16.128 18.3334C16.5362 18.3334 16.9389 18.2357 17.3051 18.0479C17.6713 17.86 17.9911 17.587 18.24 17.25C18.296 17.1833 18.352 17.125 18.4 17.075V23.3333Z" fill="#FFB577"/>
</svg>

<svg width="20" height="25" fill="none" xmlns="http://www.w3.org/2000/svg"><path fill-rule="evenodd" clip-rule="evenodd" d="M19.2 11.6667h-2.4v-6.8a.8614.8614 0 0 0-.0601-.3194.8336.8336 0 0 0-.1734-.2707.7963.7963 0 0 0-.2599-.1806A.7695.7695 0 0 0 16 4.0333h-.4v-3.2c0-.221-.0843-.433-.2343-.5892C15.2157.0878 15.0122 0 14.8 0s-.4157.0878-.5657.244C14.0843.4005 14 .6124 14 .8334v3.2h-1.6v-3.2c0-.221-.0843-.433-.2343-.5892C12.0157.0878 11.8122 0 11.6 0s-.4157.0878-.5657.244c-.15.1564-.2343.3683-.2343.5893v3.2H9.2v-3.2c0-.221-.0843-.433-.2343-.5892C8.8157.0878 8.6122 0 8.4 0s-.4157.0878-.5657.244C7.6843.4005 7.6.6124 7.6.8334v3.2H6v-3.2c0-.221-.0843-.433-.2343-.5892C5.6157.0878 5.4122 0 5.2 0s-.4157.0878-.5657.244C4.4843.4005 4.4.6124 4.4.8334v3.2H4a.7696.7696 0 0 0-.3066.0627.7957.7957 0 0 0-.26.1806.8336.8336 0 0 0-.1732.2707.8605.8605 0 0 0-.0602.3194v6.8H.8c-.212.0006-.415.0886-.565.2448-.1499.1561-.2344.3677-.235.5885v11.6667a.8606.8606 0 0 0 .0601.3193.834.834 0 0 0 .1734.2708.7958.7958 0 0 0 .26.1805A.7683.7683 0 0 0 .8 25h18.4a.7682.7682 0 0 0 .3066-.0627.7964.7964 0 0 0 .2599-.1805.834.834 0 0 0 .1734-.2708.8614.8614 0 0 0 .0601-.3193V12.5c-.0006-.2208-.0851-.4324-.235-.5885-.1499-.1562-.353-.2442-.565-.2448ZM4.8 5.7h10.4v5.9667H4.8V5.7Zm-3.2 7.6333h16.8v1.8c-.5105.194-.963.5245-1.312.9584-.368.4-.552.575-.96.575-.408 0-.584-.175-.96-.575a2.6708 2.6708 0 0 0-.9309-.8038 2.5583 2.5583 0 0 0-1.1771-.288c-.4084 0-.8113.0986-1.1771.288a2.6708 2.6708 0 0 0-.9309.8038c-.368.4-.552.575-.96.575-.408 0-.584-.175-.952-.575-.2474-.3393-.5667-.6144-.9331-.8038a2.5654 2.5654 0 0 0-1.1789-.288c-.409 0-.8125.0986-1.1789.288-.3664.1894-.6857.4645-.9331.8038-.368.4-.544.575-.952.575-.408 0-.584-.175-.952-.575-.3474-.4357-.8004-.7666-1.312-.9584v-1.8Zm16.8 10H1.6v-6.25c.048.0417.096.1.152.1584.2474.3393.5667.6144.9331.8038a2.5653 2.5653 0 0 0 1.1789.2879c.409 0 .8125-.0985 1.1789-.2879.3664-.1894.6857-.4645.9331-.8038.368-.3917.544-.575.952-.575.408 0 .592.1833.952.5833.2489.337.5687.61.9349.7979.3662.1878.769.2855 1.1771.2855.4082 0 .8109-.0977 1.1771-.2855a2.691 2.691 0 0 0 .9349-.7979c.368-.4.544-.5833.952-.5833.416 0 .592.1833.96.5833.2488.337.5687.61.9349.7979a2.5777 2.5777 0 0 0 1.1771.2855c.4082 0 .8109-.0977 1.1771-.2855.3662-.1879.686-.4609.9349-.7979.056-.0667.112-.125.16-.175v6.2583Z" fill="#FFB577"/></svg>
